packages/core/src/svgs/ilv.svg

<svg width="24" height="24" viewBox="0 0 24 24" fill="none" xmlns="http://www.w3.org/2000/svg">
<g clip-path="url(#clip0_31_11756)">
<path d="M0 0H24V24H0V0Z" fill="url(#paint0_linear_31_11756)"/>
<path d="M8.37854 10.0069C8.32282 9.94693 8.29282 9.89122 8.35282 9.81408C9.1642 8.78093 9.72462 7.57352 9.98996 6.28693C10.0971 5.76836 10.1357 5.24122 10.1785 4.71836C10.2 4.43122 10.2214 4.14408 10.2557 3.85693H10.2857V10.4141C10.2814 11.2412 10.2685 13.5426 10.2857 14.8884L10.2985 15.6598L10.3071 16.1869C10.3114 16.5169 10.4014 16.8212 10.6243 17.0784C10.7014 17.1684 10.7743 17.2626 10.8385 17.3612C10.9071 17.4598 10.9071 17.5541 10.7957 17.6312C9.91963 18.2553 9.05936 18.9012 8.21568 19.5684L8.14282 19.5984C8.29711 19.2598 8.40425 18.9426 8.51568 18.6298V18.6212C8.86229 17.5653 9.02608 16.458 8.99997 15.3469V13.6626L9.00425 11.9355C8.99568 11.2798 8.85854 10.4998 8.37854 10.0069ZM13.7143 13.0841V7.61122C13.7228 6.96408 13.7185 6.29979 13.7143 5.63979V3.85693H13.7528C13.8514 4.81265 13.9585 5.76836 14.1728 6.70693C14.422 7.76516 14.8795 8.76315 15.5185 9.64265C15.6985 9.8955 15.6985 9.89979 15.5185 10.1312L15.51 10.1398C15.1243 10.6326 15.0043 11.3226 15.0043 11.9355L15 15.3426C15 16.3369 15.21 17.2712 15.4285 18.2355L15.5143 18.6212C15.5785 18.9084 15.7285 19.3069 15.8571 19.5941C15.7971 19.5984 15.7671 19.5726 15.7371 19.5426L15.72 19.5298C14.9485 18.9212 14.0228 18.2012 13.2171 17.6355C13.0971 17.5541 13.08 17.4641 13.1571 17.3526C13.1828 17.3098 13.2128 17.2712 13.2471 17.2326C13.408 17.0612 13.5324 16.8588 13.6127 16.6378C13.693 16.4167 13.7275 16.1817 13.7143 15.9469V13.0755V13.0841ZM8.99997 19.7141V19.6926C9.45425 19.3584 9.91282 19.0412 10.3714 18.7241C10.86 18.3941 11.3443 18.0598 11.82 17.7041C11.8706 17.6605 11.9335 17.6336 12 17.6269C12.06 17.6269 12.1157 17.6569 12.18 17.7041C12.6557 18.0598 13.14 18.3898 13.6243 18.7241C14.0871 19.0412 14.5457 19.3584 15 19.6926V19.7141C14.9914 19.7097 14.9829 19.7054 14.9743 19.7012L14.9228 19.6755C14.022 19.1905 13.0223 18.9178 12 18.8784C11.0443 18.8784 9.90854 19.2341 9.07711 19.6755L9.02997 19.7012C9.01991 19.7054 9.00991 19.7097 8.99997 19.7141Z" fill="white"/>
</g>
<defs>
<linearGradient id="paint0_linear_31_11756" x1="12" y1="0" x2="12" y2="24" gradientUnits="userSpaceOnUse">
<stop stop-color="#5D2872"/>
<stop offset="0.49" stop-color="#3A2F71"/>
<stop offset="1" stop-color="#232651"/>
</linearGradient>
<clipPath id="clip0_31_11756">
<rect width="24" height="24" fill="white"/>
</clipPath>
</defs>
</svg>

<svg xmlns="http://www.w3.org/2000/svg" width="24" height="24" fill="none" viewBox="0 0 24 24"><g clip-path="url(#a)"><path fill="url(#b)" d="M0 0h24v24H0z"/><path fill="#fff" d="M8.379 10.007c-.056-.06-.086-.116-.026-.193A8.5 8.5 0 0 0 9.99 6.287c.107-.519.146-1.046.188-1.569.022-.287.043-.574.078-.861h.03v6.557c-.005.827-.018 3.129 0 4.474l.013.772.008.527c.004.33.094.634.317.891q.117.136.214.283c.07.099.07.193-.042.27a64 64 0 0 0-2.58 1.937l-.073.03c.154-.338.261-.655.373-.968v-.009A9.8 9.8 0 0 0 9 15.347v-1.684l.004-1.728c-.008-.655-.145-1.435-.625-1.928m5.335 3.077V7.611c.009-.647.005-1.311 0-1.971V3.857h.039c.098.956.206 1.911.42 2.85a8.2 8.2 0 0 0 1.345 2.936c.18.252.18.257 0 .488l-.008.009c-.386.493-.506 1.183-.506 1.795L15 15.343c0 .994.21 1.928.428 2.892l.086.386c.065.287.215.686.343.973-.06.004-.09-.021-.12-.051l-.017-.013a60 60 0 0 0-2.503-1.895c-.12-.08-.137-.17-.06-.282a1 1 0 0 1 .09-.12 1.74 1.74 0 0 0 .467-1.286v-2.871zM9 19.714v-.021c.454-.335.913-.652 1.371-.969.489-.33.973-.664 1.449-1.02a.33.33 0 0 1 .18-.077c.06 0 .116.03.18.077.476.356.96.686 1.444 1.02.463.317.922.634 1.376.969v.021l-.026-.013-.051-.026A6.7 6.7 0 0 0 12 18.879c-.956 0-2.091.356-2.923.797l-.047.026z"/></g><defs><linearGradient id="b" x1="12" x2="12" y1="0" y2="24" gradientUnits="userSpaceOnUse"><stop stop-color="#5D2872"/><stop offset=".49" stop-color="#3A2F71"/><stop offset="1" stop-color="#232651"/></linearGradient><clipPath id="a"><path fill="#fff" d="M0 0h24v24H0z"/></clipPath></defs></svg>
